X: 1
T:Holly Bush
M:4/4
L:1/8
S:Connie Connel, Cork (fiddle)
R:Reel
D:Session tape - Milltown Malbay 1983
N:As played
Z:Bernie Stocks
K:G %that is a D-C type tune (1 sharp)
A2FA DFAG | FAde fded | cG~G2 EG~G2 |~c3c {d}cAGB | ADFA DFAG |\
FAde fded | cG~G2 cGBc| {d}cAGE DEFG:: Ad{e}d^c defg | adde dcAB |\
c3B cdeg | aged cAGc | Ad{e}d^c ~d3f | adde dcAB | c2{d}cB cAGc | AEGE D4 :|
<end>
<start>
